icon-themes/sifr_svg/cmd/lc_sbaexecutesql.svg

<svg viewBox="0 0 24 24" xmlns="http://www.w3.org/2000/svg"><path d="m4.2851562 2c-1.2690939 0-2.2851562 1.1967186-2.2851562 2.6503906.0008178 1.03958.4206739 1.4526305 1.0273438 1.8984375l3.1503906 2.4140625c.3654159.281138.1468933 1.0371094-.4628906 1.0371094h-3.7148438v2h3.7148438c1.2690939 0 2.2851562-1.19672 2.2851562-2.6503906-.0006689-1.069991-.3981027-1.7882748-1.0859375-2.2460938l-3.0800781-2.0488281c-.4268233-.314258-.34468-1.0546875.4511718-1.0546875h3.7148438v-2zm7.7148438 0c-1.662 0-3 1.338-3 3v4c0 1.662 1.338 3 3 3h2c.467117 0 .903458-.113861 1.296875-.302734l.302734.302734h1.400391v-1.400391l-.302734-.302734c.188873-.393417.302734-.829758.302734-1.296875v-4c0-1.662-1.338-3-3-3zm6 0v10h2 3v-2h-3v-8zm-6 2h2c.554 0 1 .446 1 1v3.5996094l-.599609-.5996094h-1.400391v1.4003906l.599609.5996094h-1.599609c-.554 0-1-.446-1-1v-4c0-.554.446-1 1-1zm9 9-6 6-2-2-2 2 4 4 8-8z" fill="#555753"/></svg>

<svg xmlns="http://www.w3.org/2000/svg" viewBox="0 0 24 24">
  <path
     style="fill:#555753"
     d="M 4.2851562 2 C 3.0160623 2 2 3.1967186 2 4.6503906 C 2.0008178 5.6899706 2.4206739 6.1030211 3.0273438 6.5488281 L 6.1777344 8.9628906 C 6.5431503 9.2440286 6.3246277 10 5.7148438 10 L 2 10 L 2 12 L 5.7148438 12 C 6.9839377 12 8 10.80328 8 9.3496094 C 7.9993311 8.2796184 7.6018973 7.5613346 6.9140625 7.1035156 L 3.8339844 5.0546875 C 3.4071611 4.7404295 3.4893044 4 4.2851562 4 L 8 4 L 8 2 L 4.2851562 2 z M 12 2 C 10.338 2 9 3.338 9 5 L 9 9 C 9 10.662 10.338 12 12 12 L 14 12 C 14.467117 12 14.903458 11.886139 15.296875 11.697266 L 15.599609 12 L 17 12 L 17 10.599609 L 16.697266 10.296875 C 16.886139 9.903458 17 9.467117 17 9 L 17 5 C 17 3.338 15.662 2 14 2 L 12 2 z M 18 2 L 18 12 L 20 12 L 23 12 L 23 10 L 20 10 L 20 2 L 18 2 z M 12 4 L 14 4 C 14.554 4 15 4.446 15 5 L 15 8.5996094 L 14.400391 8 L 13 8 L 13 9.4003906 L 13.599609 10 L 12 10 C 11.446 10 11 9.554 11 9 L 11 5 C 11 4.446 11.446 4 12 4 z M 21 13 L 15 19 L 13 17 L 11 19 L 15 23 L 23 15 L 21 13 z "
     />
</svg>
